X:1
T:Corporal. RH.184, The
L:1/8
Q:1/4=150
M:2/4
I:linebreak $
K:C
V:1 treble 
V:1
 B | cAAc | edeg | BGBG | BGGB | cAAc | edea | gedB | A2 A :: g | geeg | aeef |$ gddB | gddg | %14
 aeeg | aeed | cABc | A2 A :| %18
